X:1
T:My Oklahoma Home, It Blowed Away
M:4/4
L:1/8
K:C
 CD| EC EF G2 EC| FC FA G3 E| E E2 EE EF E| D6 z C| EC EF G3 E| FC FG A3 F|\
 EG GE DC DE| C4 z E E3/2 F/2| G4 z c c3/2 B/2| A6 z A| GG GG G2 F3/2 E/2|\
 D6 z G| GG AG E2 cc| cc dc A2 AA| GG GG BA A3/2 B/2| c6||
